svg/plane.svg

<svg xmlns="http://www.w3.org/2000/svg" viewBox="0 0 64 65" enable-background="new 0 0 64 65"><style type="text/css">.st0{fill:#333333;}</style><title>plane</title><desc>Created with Sketch.</desc><path class="st0" d="M64 40v-12l-24.6-6.2.4-11c.1-3-1.4-6.3-3.7-8.5-2-1.9-3-2.1-3.2-2.1h-1.8c-.1 0-1.2.2-3.2 2.1-2.3 2.2-3.8 5.5-3.7 8.5l.4 11-24.6 6.2v12l25.2-2 .6 16.7-7.8 2.3v7.2l12.4-1c.4.5 1 .9 1.6.9s1.3-.3 1.6-.9l12.4 1v-7.2l-7.8-2.3.6-16.7 25.2 2zm-3-9.7v6.4l-22.1-1.7.4-10.1 21.7 5.4zm-29.3-27.2h.5c2.6 1.3 4.7 4.7 4.6 7.6l-1.8 48.2c0 .6-.5 1-1 1.1v-7c0-1.1-.9-2-2-2s-2 .9-2 2v7c-.3 0-.6-.2-.8-.5-.1-.3-.2-.6-.2-.9v-.3l-1.7-47.5c-.2-3.3 2-6.9 4.4-7.7zm-28.7 33.7v-6.4l21.7-5.5.4 10.1-22.1 1.8zm18 24.1v-1.7l4.9-1.4.1.6v.6c0 .5.1 1 .3 1.5l-5.3.4zm17.2-3.1l4.8 1.4v1.7l-5.3-.4c.2-.5.3-1.1.4-1.7l.1-1zM35 10v-2l-3-1-3 1v2l3-1z"/></svg>

<?xml version="1.0" encoding="utf-8"?>
<!-- Generator: Adobe Illustrator 21.0.0, SVG Export Plug-In . SVG Version: 6.00 Build 0)  -->
<svg version="1.1" id="Layer_1" xmlns="http://www.w3.org/2000/svg" xmlns:xlink="http://www.w3.org/1999/xlink" x="0px" y="0px"
	 viewBox="0 0 64 65" style="enable-background:new 0 0 64 65;" xml:space="preserve">
<style type="text/css">
	.st0{fill:#333333;}
</style>
<title>plane</title>
<desc>Created with Sketch.</desc>
<g>
	<path class="st0" d="M64,40V28l-24.6-6.2l0.4-11c0.1-3-1.4-6.3-3.7-8.5c-2-1.9-3-2.1-3.2-2.1c0,0-0.2,0-0.9,0c-0.6,0-0.9,0-0.9,0
		c-0.1,0-1.2,0.2-3.2,2.1c-2.3,2.2-3.8,5.5-3.7,8.5l0.4,11L0,28v12l25.2-2l0.6,16.7L18,57v7.2l12.4-1c0.4,0.5,1,0.9,1.6,0.9
		s1.3-0.3,1.6-0.9l12.4,1V57l-7.8-2.3L38.8,38L64,40z M61,30.3v6.4L38.9,35l0.4-10.1L61,30.3z M31.7,3.1c0.1,0,0.4,0,0.5,0
		c2.6,1.3,4.7,4.7,4.6,7.6L35,58.9c0,0.6-0.5,1-1,1.1v-7c0-1.1-0.9-2-2-2s-2,0.9-2,2v7c-0.3,0-0.6-0.2-0.8-0.5
		c-0.1-0.3-0.2-0.6-0.2-0.9l0-0.3l-1.7-47.5C27.1,7.5,29.3,3.9,31.7,3.1z M3,36.8v-6.4l21.7-5.5L25.1,35L3,36.8z M21,60.9v-1.7
		l4.9-1.4l0.1,0.6l0,0.6c0,0.5,0.1,1,0.3,1.5L21,60.9z M38.2,57.8l4.8,1.4v1.7l-5.3-0.4c0.2-0.5,0.3-1.1,0.4-1.7L38.2,57.8z"/>
	<polygon class="st0" points="35,10 35,8 32,7 29,8 29,10 32,9 	"/>
</g>
</svg>
